X:062
U: ~ = !turn!
%%topmargin 3cm
T:Ed Moran's Favorite
B:Traditional Irish Fiddle Tunes. Randy Miller and Jack Perron.
Z:Transcribed by Ralph Palmer
R:Reel
L:1/8
M:C|
K:G
ge | dB ((3{/c}BAB) dB ((3{/c}BAB) | AGAB c2 ge | dB ((3{/c}BAB) dB ((3{/c}BAB) | AGAB G2 :|]
D2 |: G2 Bd gbag | efge dBGB | {/d}c2 ec PB2 dB | [1 AGAB c2 BA :|] [2 AGAB G2 |]
